static/img/kroki/dc58e1b23ced7c61b044dcb69ce02eea.svg

<?xml version="1.0" encoding="us-ascii" standalone="no"?><svg xmlns="http://www.w3.org/2000/svg" xmlns:xlink="http://www.w3.org/1999/xlink" contentStyleType="text/css" height="252px" preserveAspectRatio="none" style="width:459px;height:252px;" version="1.1" viewBox="0 0 459 252" width="459px" zoomAndPan="magnify"><defs/><g><!--class aws_bedrock_custom_model--><g id="elem_aws_bedrock_custom_model"><rect codeLine="23" fill="#3D176E" height="39.7891" id="aws_bedrock_custom_model" rx="2.5" ry="2.5" style="stroke:#000D19;stroke-width:0.5;" width="280" x="7" y="106.79"/><ellipse cx="22" cy="126.6845" fill="#ADD1B2" rx="11" ry="11" style="stroke:#181818;stroke-width:1.0;"/><path d="M24.9688,132.3252 Q24.3906,132.622 23.75,132.7627 Q23.1094,132.9189 22.4063,132.9189 Q19.9063,132.9189 18.5781,131.2783 Q17.2656,129.622 17.2656,126.497 Q17.2656,123.372 18.5781,121.7158 Q19.9063,120.0595 22.4063,120.0595 Q23.1094,120.0595 23.75,120.2158 Q24.4063,120.372 24.9688,120.6689 L24.9688,123.3877 Q24.3438,122.8095 23.75,122.5439 Q23.1563,122.2627 22.5313,122.2627 Q21.1875,122.2627 20.5,123.3408 Q19.8125,124.4033 19.8125,126.497 Q19.8125,128.5908 20.5,129.6689 Q21.1875,130.7314 22.5313,130.7314 Q23.1563,130.7314 23.75,130.4658 Q24.3438,130.1845 24.9688,129.6064 L24.9688,132.3252 Z " fill="#000000"/><text fill="#D9B8FF" font-family="Helvetica" font-size="17" lengthAdjust="spacing" textLength="238" x="41" y="132.5698">aws_bedrock_custom_model</text></g><!--class aws_bedrock_foundation_model--><g id="elem_aws_bedrock_foundation_model"><rect codeLine="26" fill="#3D176E" height="39.7891" id="aws_bedrock_foundation_model" rx="2.5" ry="2.5" style="stroke:#000D19;stroke-width:0.5;" width="310" x="88" y="7"/><ellipse cx="103" cy="26.8945" fill="#ADD1B2" rx="11" ry="11" style="stroke:#181818;stroke-width:1.0;"/><path d="M105.9688,32.5352 Q105.3906,32.832 104.75,32.9727 Q104.1094,33.1289 103.4063,33.1289 Q100.9063,33.1289 99.5781,31.4883 Q98.2656,29.832 98.2656,26.707 Q98.2656,23.582 99.5781,21.9258 Q100.9063,20.2695 103.4063,20.2695 Q104.1094,20.2695 104.75,20.4258 Q105.4063,20.582 105.9688,20.8789 L105.9688,23.5977 Q105.3438,23.0195 104.75,22.7539 Q104.1563,22.4727 103.5313,22.4727 Q102.1875,22.4727 101.5,23.5508 Q100.8125,24.6133 100.8125,26.707 Q100.8125,28.8008 101.5,29.8789 Q102.1875,30.9414 103.5313,30.9414 Q104.1563,30.9414 104.75,30.6758 Q105.3438,30.3945 105.9688,29.8164 L105.9688,32.5352 Z " fill="#000000"/><text fill="#D9B8FF" font-family="Helvetica" font-size="17" lengthAdjust="spacing" textLength="268" x="122" y="32.7798">aws_bedrock_foundation_model</text></g><!--class aws_bedrock_provisioned_model_throughput--><g id="elem_aws_bedrock_provisioned_model_throughput"><rect codeLine="29" fill="#3D176E" height="39.7891" id="aws_bedrock_provisioned_model_throughput" rx="2.5" ry="2.5" style="stroke:#000D19;stroke-width:0.5;" width="419" x="33.5" y="206.58"/><ellipse cx="48.5" cy="226.4745" fill="#ADD1B2" rx="11" ry="11" style="stroke:#181818;stroke-width:1.0;"/><path d="M51.4688,232.1152 Q50.8906,232.412 50.25,232.5527 Q49.6094,232.7089 48.9063,232.7089 Q46.4063,232.7089 45.0781,231.0683 Q43.7656,229.412 43.7656,226.287 Q43.7656,223.162 45.0781,221.5058 Q46.4063,219.8495 48.9063,219.8495 Q49.6094,219.8495 50.25,220.0058 Q50.9063,220.162 51.4688,220.4589 L51.4688,223.1777 Q50.8438,222.5995 50.25,222.3339 Q49.6563,222.0527 49.0313,222.0527 Q47.6875,222.0527 47,223.1308 Q46.3125,224.1933 46.3125,226.287 Q46.3125,228.3808 47,229.4589 Q47.6875,230.5214 49.0313,230.5214 Q49.6563,230.5214 50.25,230.2558 Q50.8438,229.9745 51.4688,229.3964 L51.4688,232.1152 Z " fill="#000000"/><text fill="#D9B8FF" font-family="Helvetica" font-size="17" lengthAdjust="spacing" textLength="377" x="67.5" y="232.3598">aws_bedrock_provisioned_model_throughput</text></g><!--link aws_bedrock_custom_model to aws_bedrock_provisioned_model_throughput--><g id="link_aws_bedrock_custom_model_aws_bedrock_provisioned_model_throughput"><path codeLine="32" d="M165.97,147.01 C182.8,164.15 203.0475,184.7776 219.8675,201.9176 " fill="none" id="aws_bedrock_custom_model-to-aws_bedrock_provisioned_model_throughput" style="stroke:#1A83AF;stroke-width:2.0;"/><polygon fill="#1A83AF" points="224.07,206.2,220.6212,196.9747,220.5679,202.6313,214.9113,202.578,224.07,206.2" style="stroke:#1A83AF;stroke-width:2.0;"/></g><!--link aws_bedrock_foundation_model to aws_bedrock_custom_model--><g id="link_aws_bedrock_foundation_model_aws_bedrock_custom_model"><path codeLine="33" d="M224.03,47.22 C207.2,64.36 186.9525,84.9876 170.1325,102.1276 " fill="none" id="aws_bedrock_foundation_model-to-aws_bedrock_custom_model" style="stroke:#1A83AF;stroke-width:2.0;"/><polygon fill="#1A83AF" points="165.93,106.41,175.0887,102.788,169.4321,102.8413,169.3788,97.1847,165.93,106.41" style="stroke:#1A83AF;stroke-width:2.0;"/></g><!--link aws_bedrock_foundation_model to aws_bedrock_provisioned_model_throughput--><g id="link_aws_bedrock_foundation_model_aws_bedrock_provisioned_model_throughput"><path codeLine="34" d="M264.12,46.99 C278.72,61.7 296.91,83.41 305,106.79 C310.78,123.5 310.78,129.87 305,146.58 C296.91,169.96 282.9481,187.4229 268.3481,202.1229 " fill="none" id="aws_bedrock_foundation_model-to-aws_bedrock_provisioned_model_throughput" style="stroke:#1A83AF;stroke-width:2.0;"/><polygon fill="#1A83AF" points="264.12,206.38,273.3003,202.8131,267.6434,202.8324,267.6241,197.1756,264.12,206.38" style="stroke:#1A83AF;stroke-width:2.0;"/></g><!--SRC=[dP31IiD048RlUOg5dWkDHTjUXBHGz5B4UXC9c-niioIx6sOdBLLyTnkZiYPDAbvtllt_RoPJ0XZeaevCWqu0NU1oPKgENBC8qHvMjh38Hb9oEPsrXsjhw2AmuHhO7HHx89NoDl6KgJGtu1oxyaPBdkOxj9KHJJmXD-uq0aCUjIguSn4HggGYy6J48fbBsIRReQEf26StqC4i2i0lP3APY73HHYvM3UxzGspLAx3GFzh64dGqEnMVrA1bJNYIdKM_vxsE3rm8PNRisdjxR9pG0FvwtsPSs4DDIruulyOH85Wwbh3gR0MBkP2pi_1z7noazUaOFxWu0O4spUEqScHrhAs0Whq5mViPHjP9d9Grmro9Tg_S2GFHW35b9ujTLbRK_Ebj7Z-FmcW-ZTOluzi_PmQ3ahsHVl4_8mQjFW00]--></g></svg>

<svg xmlns="http://www.w3.org/2000/svg" width="459" height="252" viewBox="0 0 459 252"><rect width="280" height="39.789" x="7" y="106.79" fill="#3D176E" rx="2.5" ry="2.5" style="stroke:#000d19;stroke-width:.5"/><circle cx="22" cy="126.684" r="11" fill="#ADD1B2" style="stroke:#181818;stroke-width:1"/><path d="M24.969 132.325q-.578.297-1.219.438-.64.156-1.344.156-2.5 0-3.828-1.64-1.312-1.657-1.312-4.782t1.312-4.781q1.328-1.656 3.828-1.656.703 0 1.344.156.656.156 1.219.453v2.719q-.625-.579-1.219-.844-.594-.281-1.219-.281-1.343 0-2.031 1.078-.687 1.062-.687 3.156t.687 3.172q.688 1.062 2.031 1.062.625 0 1.219-.265.594-.281 1.219-.86z"/><text x="41" y="132.57" fill="#D9B8FF" font-family="Helvetica" font-size="17" textLength="238">aws_bedrock_custom_model</text><rect width="310" height="39.789" x="88" y="7" fill="#3D176E" rx="2.5" ry="2.5" style="stroke:#000d19;stroke-width:.5"/><circle cx="103" cy="26.895" r="11" fill="#ADD1B2" style="stroke:#181818;stroke-width:1"/><path d="M105.969 32.535q-.578.297-1.219.438-.64.156-1.344.156-2.5 0-3.828-1.64-1.312-1.657-1.312-4.782t1.312-4.781q1.328-1.656 3.828-1.656.703 0 1.344.156.656.156 1.219.453v2.719q-.625-.578-1.219-.844-.594-.281-1.219-.281-1.344 0-2.031 1.078-.687 1.062-.687 3.156t.687 3.172q.688 1.062 2.031 1.062.625 0 1.219-.265.594-.281 1.219-.86z"/><text x="122" y="32.78" fill="#D9B8FF" font-family="Helvetica" font-size="17" textLength="268">aws_bedrock_foundation_model</text><rect width="419" height="39.789" x="33.5" y="206.58" fill="#3D176E" rx="2.5" ry="2.5" style="stroke:#000d19;stroke-width:.5"/><circle cx="48.5" cy="226.475" r="11" fill="#ADD1B2" style="stroke:#181818;stroke-width:1"/><path d="M51.469 232.115q-.578.297-1.219.438-.64.156-1.344.156-2.5 0-3.828-1.64-1.312-1.657-1.312-4.782t1.312-4.781q1.328-1.656 3.828-1.656.703 0 1.344.156.656.156 1.219.453v2.719q-.625-.578-1.219-.844-.594-.281-1.219-.281-1.343 0-2.031 1.078-.687 1.062-.687 3.156t.687 3.172q.688 1.062 2.031 1.062.625 0 1.219-.265.594-.281 1.219-.86z"/><text x="67.5" y="232.36" fill="#D9B8FF" font-family="Helvetica" font-size="17" textLength="377">aws_bedrock_provisioned_model_throughput</text><path fill="none" d="M165.97 147.01c16.83 17.14 37.078 37.768 53.898 54.908" style="stroke:#1a83af;stroke-width:2"/><path fill="#1A83AF" d="m224.07 206.2-3.449-9.225-.053 5.656-5.657-.053z" style="stroke:#1a83af;stroke-width:2"/><path fill="none" d="M224.03 47.22a276511 276511 0 0 0-53.898 54.908" style="stroke:#1a83af;stroke-width:2"/><path fill="#1A83AF" d="m165.93 106.41 9.159-3.622-5.657.053-.053-5.656z" style="stroke:#1a83af;stroke-width:2"/><path fill="none" d="M264.12 46.99c14.6 14.71 32.79 36.42 40.88 59.8 5.78 16.71 5.78 23.08 0 39.79-8.09 23.38-22.052 40.843-36.652 55.543" style="stroke:#1a83af;stroke-width:2"/><path fill="#1A83AF" d="m264.12 206.38 9.18-3.567-5.657.02-.019-5.657z" style="stroke:#1a83af;stroke-width:2"/></svg>
